Sources/FrostedUI/Resources/Icons.xcassets/message32.imageset/message-32.svg

<svg width="32" height="32" viewBox="0 0 32 32" fill="none" xmlns="http://www.w3.org/2000/svg" data-fui-icon="true">
  <path
    d="M25.667 4.25C27.5538 4.2502 29.084 5.78015 29.084 7.66699V21.667C29.0838 23.5537 27.5537 25.0828 25.667 25.083H20.502C20.3661 25.083 20.2342 25.1314 20.1299 25.2178L17.332 27.5352C16.5577 28.1766 15.4348 28.1733 14.6641 27.5273L11.9111 25.2197C11.8062 25.1318 11.6731 25.0831 11.5361 25.083H6.33398C4.44713 25.083 2.91717 23.5539 2.91699 21.667V7.66699C2.91699 5.78002 4.44701 4.25 6.33398 4.25H25.667ZM6.33398 5.75C5.27544 5.75 4.41699 6.60845 4.41699 7.66699V21.667C4.41717 22.7254 5.27554 23.583 6.33398 23.583H11.5361C12.0254 23.5831 12.499 23.7561 12.874 24.0703L15.6279 26.3779C15.8435 26.5585 16.158 26.5596 16.375 26.3799L19.1729 24.0625C19.5465 23.753 20.017 23.583 20.502 23.583H25.667C26.7253 23.5828 27.5838 22.7253 27.584 21.667V7.66699C27.584 6.60856 26.7254 5.7502 25.667 5.75H6.33398ZM10 13.125C10.8515 13.125 11.542 13.8156 11.542 14.667C11.5418 15.5182 10.8513 16.208 10 16.208C9.14867 16.208 8.45818 15.5182 8.45801 14.667C8.45801 13.8156 9.14856 13.125 10 13.125ZM16 13.125C16.8514 13.125 17.542 13.8156 17.542 14.667C17.5418 15.5182 16.8513 16.208 16 16.208C15.1488 16.208 14.4582 15.5182 14.458 14.667C14.458 13.8156 15.1486 13.125 16 13.125ZM22 13.125C22.8514 13.125 23.542 13.8156 23.542 14.667C23.5418 15.5182 22.8513 16.208 22 16.208C21.1488 16.208 20.4582 15.5182 20.458 14.667C20.458 13.8156 21.1486 13.125 22 13.125Z"
    fill="currentColor"
  />
</svg>

<svg xmlns="http://www.w3.org/2000/svg" width="32" height="32" fill="none" data-fui-icon="true" viewBox="0 0 32 32"><path fill="currentColor" d="M25.667 4.25a3.42 3.42 0 0 1 3.417 3.417v14a3.417 3.417 0 0 1-3.417 3.416h-5.165a.6.6 0 0 0-.372.135l-2.798 2.317a2.084 2.084 0 0 1-2.668-.008l-2.753-2.307a.6.6 0 0 0-.375-.137H6.334a3.417 3.417 0 0 1-3.417-3.416v-14A3.417 3.417 0 0 1 6.334 4.25zM6.334 5.75a1.917 1.917 0 0 0-1.917 1.917v14c0 1.058.859 1.916 1.917 1.916h5.202c.49 0 .963.173 1.338.487l2.754 2.308c.216.18.53.182.747.002l2.798-2.317c.374-.31.844-.48 1.329-.48h5.165a1.917 1.917 0 0 0 1.917-1.916v-14a1.92 1.92 0 0 0-1.917-1.917zM10 13.125a1.542 1.542 0 1 1 0 3.084 1.542 1.542 0 0 1 0-3.084m6 0a1.542 1.542 0 1 1 0 3.085 1.542 1.542 0 0 1 0-3.085m6 0a1.542 1.542 0 1 1 0 3.085 1.542 1.542 0 0 1 0-3.085"/></svg>
